build/img/icons/fire.svg

<svg width="23" height="28" viewBox="0 0 23 28" fill="none" xmlns="http://www.w3.org/2000/svg">
<path d="M7.16345 9.49346L7.16095 9.49471L7.1572 9.4972L7.16345 9.49346ZM19.606 9.25971C19.519 9.17581 19.4225 9.10239 19.3185 9.04096C19.1711 8.95423 19.0076 8.89864 18.838 8.87762C18.6683 8.8566 18.4962 8.8706 18.3322 8.91875C18.1681 8.9669 18.0157 9.04818 17.8844 9.15757C17.753 9.26695 17.6455 9.40212 17.5685 9.55471C17.1379 10.4034 16.5441 11.1586 15.821 11.7772C15.9318 11.1541 15.9879 10.5226 15.9885 9.8897C15.9908 7.96488 15.4831 6.07379 14.517 4.40899C13.5509 2.74418 12.1609 1.36512 10.4885 0.412207C10.3042 0.307493 10.0963 0.251363 9.88431 0.249095C9.67236 0.246827 9.46331 0.298494 9.27681 0.39924C9.09032 0.499986 8.93251 0.646502 8.81822 0.825013C8.70392 1.00352 8.6369 1.20817 8.62345 1.41971C8.55347 2.60483 8.24363 3.76341 7.7127 4.82527C7.18177 5.88712 6.44081 6.83014 5.5347 7.59721L5.2472 7.83096C4.29922 8.46876 3.46014 9.25508 2.7622 10.1597C1.67755 11.5261 0.926189 13.1264 0.567723 14.8338C0.209257 16.5411 0.253543 18.3085 0.697069 19.9957C1.14059 21.683 1.97116 23.2437 3.12289 24.554C4.27462 25.8644 5.71582 26.8883 7.3322 27.5447C7.52198 27.6219 7.72783 27.6514 7.93164 27.6303C8.13545 27.6093 8.33097 27.5385 8.50099 27.4242C8.67102 27.3099 8.81033 27.1555 8.90666 26.9747C9.003 26.7938 9.05341 26.5921 9.05345 26.3872C9.05241 26.2548 9.03134 26.1233 8.99095 25.9972C8.71128 24.946 8.63073 23.8518 8.75345 22.771C9.93654 25.0017 11.8354 26.7698 14.1447 27.791C14.4265 27.9169 14.7449 27.9338 15.0385 27.8385C16.8628 27.2495 18.5063 26.2039 19.8127 24.801C21.1192 23.398 22.0452 21.6843 22.5029 19.8227C22.9606 17.9611 22.9346 16.0134 22.4276 14.1646C21.9206 12.3158 20.9493 10.6274 19.606 9.25971ZM14.7247 25.2985C13.6351 24.7463 12.6738 23.9711 11.9035 23.023C11.1331 22.075 10.5709 20.9755 10.2535 19.796C10.1564 19.3987 10.0813 18.9964 10.0285 18.591C9.99288 18.3327 9.87749 18.0921 9.69841 17.9027C9.51933 17.7133 9.28552 17.5847 9.0297 17.5347C8.95105 17.5194 8.87108 17.5119 8.79095 17.5122C8.57133 17.512 8.35552 17.5696 8.16526 17.6794C7.97501 17.7891 7.81702 17.947 7.7072 18.1372C6.67026 19.9263 6.14892 21.9675 6.20095 24.0347C5.28865 23.3256 4.52617 22.4424 3.95772 21.4364C3.38927 20.4304 3.02615 19.3216 2.88942 18.1743C2.75268 17.0269 2.84505 15.8638 3.16116 14.7524C3.47728 13.641 4.01085 12.6034 4.73095 11.6997C5.27773 10.9895 5.93732 10.3738 6.68345 9.8772C6.7161 9.85626 6.74742 9.8333 6.7772 9.80846C6.7772 9.80846 7.1472 9.50221 7.1597 9.49596C8.9412 7.98976 10.2084 5.96529 10.7847 3.70471C12.1465 4.96391 13.0544 6.63753 13.3675 8.46566C13.6805 10.2938 13.3812 12.1741 12.516 13.8147C12.4014 14.0337 12.3544 14.2817 12.3808 14.5274C12.4072 14.7731 12.5058 15.0054 12.6641 15.1951C12.8225 15.3848 13.0336 15.5233 13.2706 15.593C13.5077 15.6628 13.7601 15.6608 13.996 15.5872C15.9106 14.9867 17.5954 13.8141 18.8235 12.2272C19.5618 13.3175 20.0446 14.5604 20.2358 15.8632C20.427 17.166 20.3216 18.4952 19.9277 19.7517C19.5337 21.0082 18.8612 22.1595 17.9603 23.1199C17.0594 24.0803 15.9534 24.825 14.7247 25.2985Z" fill="#5CC773"/>
</svg>

<svg width="23" height="28" fill="none" xmlns="http://www.w3.org/2000/svg">
    <path d="m7.163 9.493-.002.002-.004.002.006-.004zm12.443-.233a1.55 1.55 0 0 0-.288-.219 1.25 1.25 0 0 0-1.75.514 7.23 7.23 0 0 1-1.747 2.222A10.894 10.894 0 0 0 10.489.412 1.25 1.25 0 0 0 8.623 1.42a8.771 8.771 0 0 1-3.088 6.177l-.288.234a10.641 10.641 0 0 0-2.485 2.329 11.229 11.229 0 0 0 4.57 17.385 1.25 1.25 0 0 0 1.659-1.548 8.721 8.721 0 0 1-.238-3.226 11.255 11.255 0 0 0 5.392 5.02c.282.126.6.143.894.047A11.245 11.245 0 0 0 19.605 9.26zm-4.881 16.038a8.705 8.705 0 0 1-4.471-5.502 11.13 11.13 0 0 1-.226-1.205 1.25 1.25 0 0 0-2.32-.454A11.199 11.199 0 0 0 6.2 24.035 8.731 8.731 0 0 1 4.73 11.7a8.194 8.194 0 0 1 1.952-1.823.931.931 0 0 0 .094-.069s.37-.306.383-.312a11.21 11.21 0 0 0 3.625-5.791 8.42 8.42 0 0 1 1.731 10.11 1.25 1.25 0 0 0 1.48 1.772 9.82 9.82 0 0 0 4.827-3.36A8.751 8.751 0 0 1 14.726 25.3z" fill="#5CC773"/>
</svg>
